public/images/projectapp/06.supplies.svg

<svg viewBox="0 0 48.19 48.19" xmlns="http://www.w3.org/2000/svg"><rect fill="#94d1e0" height="45.04" rx="22.52" width="45.04" x="1.63" y="1.57"/><g fill="#1d1d1b"><path d="m37.62 17.2a2.18 2.18 0 0 0 -2.18-2.2h-6.08v-1.28a2.17 2.17 0 0 0 -2.17-2.17h-6.08a2.18 2.18 0 0 0 -2.18 2.17v1.28h-6.07a2.18 2.18 0 0 0 -2.18 2.17v13.94a2.18 2.18 0 0 0 2.18 2.17h22.58a2.18 2.18 0 0 0 2.18-2.17zm-16.51-4.78c7.81 0 7.39-.47 7.39 2.61h-8.69c0-1.24-.15-2.61 1.3-2.61zm14.33 3.48c1.66 0 1.31 1.73 1.31 4.78h-25.2v-3.48c0-1.81.19-1.3 23.89-1.3zm-5.21 5.65h1.77v2.17h-1.77zm-13.9 0h1.74v2.17h-1.74zm19.11 10.86c-23.78 0-23.89.49-23.89-1.3v-9.56h3.91v3h3.47v-3h10.43v3h3.47v-3h3.91c0 9.45.44 10.86-1.3 10.86z"/><path d="m23.72 18.07h.87v.87h-.87z"/><path d="m21.98 18.07h.87v.87h-.87z"/><path d="m25.45 18.07h.87v.87h-.87z"/></g></svg>

<svg id="Layer_1" data-name="Layer 1" xmlns="http://www.w3.org/2000/svg" viewBox="0 0 48.19 48.19">
  <defs>
    <style>
      .cls-1 {
        fill: #94d1e0;
      }

      .cls-2 {
        fill: #1d1d1b;
      }
    </style>
  </defs>
  <title>supplies</title>
  <g>
    <rect class="cls-1" x="1.63" y="1.57" width="45.04" height="45.04" rx="22.52"/>
    <g>
      <path class="cls-2" d="M37.62,17.2A2.18,2.18,0,0,0,35.44,15H29.36V13.72a2.17,2.17,0,0,0-2.17-2.17H21.11a2.18,2.18,0,0,0-2.18,2.17V15H12.86a2.18,2.18,0,0,0-2.18,2.17V31.11a2.18,2.18,0,0,0,2.18,2.17H35.44a2.18,2.18,0,0,0,2.18-2.17ZM21.11,12.42c7.81,0,7.39-.47,7.39,2.61H19.81C19.81,13.79,19.66,12.42,21.11,12.42ZM35.44,15.9c1.66,0,1.31,1.73,1.31,4.78H11.55V17.2C11.55,15.39,11.74,15.9,35.44,15.9Zm-5.21,5.65H32v2.17H30.23Zm-13.9,0h1.74v2.17H16.33ZM35.44,32.41c-23.78,0-23.89.49-23.89-1.3V21.55h3.91v3h3.47v-3H29.36v3h3.47v-3h3.91C36.74,31,37.18,32.41,35.44,32.41Z"/>
      <rect class="cls-2" x="23.72" y="18.07" width="0.87" height="0.87"/>
      <rect class="cls-2" x="21.98" y="18.07" width="0.87" height="0.87"/>
      <rect class="cls-2" x="25.45" y="18.07" width="0.87" height="0.87"/>
    </g>
  </g>
</svg>
